X:171
T:Jolly Tinker
Z: id:dc-reel-158
M:C
L:1/8
K:A Mixolydian
dB|A3B G3B|A3f gedB|A3B G3B|dBGB d2:|!
ed|edef g2ef|g2af gedg|edeg a2bg|a2bg ag:|!
ed|eaag edBd|eaag egdg|eaag efge|dBGB d2Bd|!
eaag eaag|eaag egdg|eaag efge|dBGB d2|]!
Bd|edgd edgd|edgd e2Bd|edef gage|dBGB d2:|!
fg|eAA2 edBd|edef g2fg|eAA2 efge|dBGB d2fg|!
eAA2 edBd|edef g2fg|eaag efge|dBGB d2|]!

